images/services-page/Window-code-block.svg

<svg width="24" height="24" viewBox="0 0 24 24" fill="none" xmlns="http://www.w3.org/2000/svg">
<path d="M3 6L21 6M14 11L16 13L14 15M10 15L8 13L10 11M3 16.8V7.20001C3 6.07991 3 5.51986 3.21799 5.09204C3.40973 4.71572 3.71547 4.40973 4.0918 4.21799C4.51962 4 5.08009 4 6.2002 4H17.8002C18.9203 4 19.48 4 19.9078 4.21799C20.2841 4.40973 20.5905 4.71572 20.7822 5.09204C21.0002 5.51986 21 6.07991 21 7.20001V16.8C21 17.9201 21.0002 18.4801 20.7822 18.908C20.5905 19.2843 20.2841 19.5903 19.9078 19.782C19.48 20 18.9203 20 17.8002 20L6.2002 20C5.08009 20 4.51962 20 4.0918 19.782C3.71547 19.5903 3.40973 19.2843 3.21799 18.908C3 18.4801 3 17.9201 3 16.8Z" stroke="rgba(102, 221, 141, 1)" stroke-width="2" stroke-linecap="round" stroke-linejoin="round"/>
</svg>

<svg xmlns="http://www.w3.org/2000/svg" width="24" height="24" fill="none"><path stroke="rgba(102, 221, 141, 1)" stroke-linecap="round" stroke-linejoin="round" stroke-width="2" d="M3 6h18m-7 5 2 2-2 2m-4 0-2-2 2-2m-7 5.8V7.2c0-1.12 0-1.68.218-2.108a2 2 0 0 1 .874-.874C4.52 4 5.08 4 6.2 4h11.6c1.12 0 1.68 0 2.108.218a2 2 0 0 1 .874.874C21 5.52 21 6.08 21 7.2v9.6c0 1.12 0 1.68-.218 2.108a2 2 0 0 1-.874.874C19.48 20 18.92 20 17.8 20H6.2c-1.12 0-1.68 0-2.108-.218a2 2 0 0 1-.874-.874C3 18.48 3 17.92 3 16.8Z"/></svg>
